resources/haticons/SVG/not_started.svg

<!-- Generated by IcoMoon.io -->
<svg version="1.1" xmlns="http://www.w3.org/2000/svg" width="24" height="24" viewBox="0 0 24 24">
<title>not_started</title>
<path d="M12 2.016q-2.063 0-3.867 0.773t-3.188 2.156-2.156 3.188-0.773 3.867 0.773 3.867 2.156 3.188 3.188 2.156 3.867 0.773 3.867-0.773 3.188-2.156 2.156-3.188 0.773-3.867-0.773-3.867-2.156-3.188-3.188-2.156-3.867-0.773zM11.016 15.984h-2.016v-7.969h2.016v7.969zM12 15.984v-7.969l5.016 3.984z"></path>
</svg>

<svg xmlns="http://www.w3.org/2000/svg" width="24" height="24"><path d="M12 2.016q-2.063 0-3.867.773T4.945 4.945 2.789 8.133 2.016 12t.773 3.867 2.156 3.188 3.188 2.156 3.867.773 3.867-.773 3.188-2.156 2.156-3.188.773-3.867-.773-3.867-2.156-3.188-3.188-2.156T12 2.016zm-.984 13.968H9V8.015h2.016v7.969zm.984 0V8.015l5.016 3.984z"/></svg>
